X:27
T:Eleanor Plunkett
T:Planxty Eleanor Plunkett
R:carolan
C:Turlough O'Carolan (1670-1738)
Z:id:hn-carolan-27
M:3/4
L:1/8
K:G
GA | B3 B A/B/A | G4 ag | e3 eed | B3 BAG | E2 A2 AB | A4 :|
|: ga | b2 aged | e3 Bef | g3 d g/a/b | a2 bagf | g2 agfe | d2 B3 d |
e2 g3 G | B2 dBAG | E2 A2 AB | A4 :|
P:variations
|: GA | B2 B2 AG | G2 G2 ag | e2 e2 ed | B2 B2 AG | E2 A2 AB | E2 A2 :|
|: ga | b2 aged | e4 ef | g2 g2 b2 | a2 bagf | g2 agfe | d2 B2 d2 |
e2 g2 G2 | B2 B2 AG | E2 A2 AB | E2 A2 :|
<end>
<start>
